img/footer/vk.svg

<svg width="40" height="40" viewBox="0 0 40 40" fill="none" xmlns="http://www.w3.org/2000/svg">
<g opacity="0.2">
<rect x="0.393305" y="0.72729" width="38.5439" height="38.5439" rx="19.272" stroke="white" stroke-width="0.786611"/>
<path d="M22.5632 10.5605H16.7674C11.4782 10.5605 10.226 11.8128 10.226 17.102V22.8978C10.226 28.1869 11.4782 29.4392 16.7674 29.4392H22.5632C27.8523 29.4392 29.1046 28.1869 29.1046 22.8978V17.102C29.1046 11.8128 27.839 10.5605 22.5632 10.5605ZM25.4673 24.0297H24.0955C23.5763 24.0297 23.4158 23.6167 22.4829 22.6712C21.6704 21.8846 21.3109 21.7784 21.1111 21.7784C20.831 21.7784 20.7508 21.8586 20.7508 22.2449V23.4838C20.7508 23.8173 20.6446 24.0171 19.7652 24.0171C18.3131 24.0171 16.7005 23.1377 15.5686 21.4984C13.8632 19.1008 13.396 17.3018 13.396 16.9289C13.396 16.7291 13.4762 16.5427 13.8625 16.5427H15.2343C15.5804 16.5427 15.7141 16.7024 15.8479 17.0753C16.5267 19.0339 17.6594 20.7527 18.1259 20.7527C18.2989 20.7527 18.3792 20.6724 18.3792 20.2335V18.2072C18.3257 17.2743 17.8325 17.1948 17.8325 16.8621C17.8325 16.7016 17.9662 16.5419 18.1786 16.5419H20.337C20.6305 16.5419 20.7366 16.7016 20.7366 17.0477V19.7796C20.7366 20.0722 20.8704 20.1792 20.9498 20.1792C21.1229 20.1792 21.27 20.0722 21.5893 19.7529C22.5757 18.6469 23.2813 16.9415 23.2813 16.9415C23.3749 16.7417 23.5346 16.5553 23.8815 16.5553H25.2534C25.6663 16.5553 25.7599 16.7677 25.6663 17.0611C25.4933 17.8611 23.8147 20.2319 23.8147 20.2319C23.6683 20.4718 23.6149 20.578 23.8147 20.8455C23.961 21.0453 24.4408 21.4583 24.7609 21.8311C25.347 22.4974 25.7993 23.0566 25.9196 23.4437C26.0533 23.8291 25.8528 24.0289 25.4665 24.0289L25.4673 24.0297Z" fill="white"/>
</g>
</svg>

<svg width="40" height="40" fill="none" xmlns="http://www.w3.org/2000/svg"><g opacity=".2"><rect x=".393" y=".727" width="38.544" height="38.544" rx="19.272" stroke="#fff" stroke-width=".787"/><path d="M22.563 10.56h-5.796c-5.289 0-6.541 1.253-6.541 6.542v5.796c0 5.289 1.252 6.541 6.541 6.541h5.796c5.29 0 6.542-1.252 6.542-6.541v-5.796c0-5.29-1.266-6.542-6.542-6.542zm2.904 13.47h-1.371c-.52 0-.68-.413-1.613-1.359-.813-.786-1.172-.893-1.372-.893-.28 0-.36.08-.36.467v1.239c0 .333-.106.533-.986.533-1.452 0-3.064-.88-4.196-2.519-1.706-2.397-2.173-4.196-2.173-4.57 0-.199.08-.385.466-.385h1.372c.346 0 .48.16.614.532.679 1.959 1.811 3.678 2.278 3.678.173 0 .253-.08.253-.52v-2.026c-.053-.933-.547-1.012-.547-1.345 0-.16.134-.32.347-.32h2.158c.294 0 .4.16.4.506v2.732c0 .292.133.4.213.4.173 0 .32-.108.64-.427.986-1.106 1.691-2.811 1.691-2.811.094-.2.254-.387.6-.387h1.372c.413 0 .507.213.413.506-.173.8-1.851 3.17-1.851 3.17-.147.24-.2.347 0 .614.146.2.626.613.946.986.586.666 1.038 1.226 1.159 1.613.133.385-.067.585-.454.585h.001z" fill="#fff"/></g></svg>
